Adwaita++-Light/panel/16/si-syncthing-idle.svg

<svg height="16" width="16" xmlns="http://www.w3.org/2000/svg">
  <path d="m3.0502525 3.0502525a7 7 0 0 0 0 9.8994945 7 7 0 0 0 9.8994945 0 7 7 0 0 0 0-9.8994945 7 7 0 0 0 -9.8994945 0zm1.4142136 1.4142136a5 5 0 0 1 6.3391019-.6021456 1.5 1.5 0 0 1 1.792626.2485922 1.5 1.5 0 0 1 .05248 2.0633155 5 5 0 0 1 .0028 3.6543055 1.5 1.5 0 0 1 -.05524 2.0605533 1.5 1.5 0 0 1 -1.794007.247211 5 5 0 0 1 -6.3377209-.600764 5 5 0 0 1 -.059386-.06215 1.5 1.5 0 0 1 -1.7083811-.291405 1.5 1.5 0 0 1 0-2.1213208 1.5 1.5 0 0 1 .3728883-.2706893 5 5 0 0 1 1.3948787-4.3255048zm.7071068.7071068a4 4 0 0 0 -1.1131408 3.4802912 1.5 1.5 0 0 1 .7595874.4087961 1.5 1.5 0 0 1 .040051.045575l2.3533398-1.0081794a1.5 1.5 0 0 1 .4350363-1.158716 1.5 1.5 0 0 1 1.7056189-.2914053l.8314035-.8314032a1.5 1.5 0 0 1 -.042813-1.1890996 4 4 0 0 0 -4.9690831.5441412zm.080102 4.8530731a1.5 1.5 0 0 1 -.140869.73749 4 4 0 0 0 .060767.06629 4 4 0 0 0 4.9690831.546903 1.5 1.5 0 0 1 .04281-1.191861l-.8314005-.8314025a1.5 1.5 0 0 1 -1.7056189-.2914053 1.5 1.5 0 0 1 -.040051-.0455753l-2.3547208 1.0095611zm4.8074971-2.6696047a1.5 1.5 0 0 1 0 1.2899174l.831403.8314032a1.5 1.5 0 0 1 .870073-.1270587 4 4 0 0 0 0-2.6958444 1.5 1.5 0 0 1 -.870073-.1298207z" fill="#444"/>
</svg>

<svg xmlns="http://www.w3.org/2000/svg" width="16" height="16" version="1.1">
 <defs>
  <style id="current-color-scheme" type="text/css">
   .ColorScheme-Text { color:#444444; } .ColorScheme-Highlight { color:#4285f4; }
  </style>
 </defs>
 <path style="fill:currentColor" class="ColorScheme-Text" d="m 3.0502525,3.0502525 a 7,7 0 0 0 0,9.8994945 7,7 0 0 0 9.8994945,0 7,7 0 0 0 0,-9.8994945 7,7 0 0 0 -9.8994945,0 z m 1.4142136,1.4142136 a 5,5 0 0 1 6.3391019,-0.6021456 1.5,1.5 0 0 1 1.792626,0.2485922 1.5,1.5 0 0 1 0.05248,2.0633155 5,5 0 0 1 0.0028,3.6543055 1.5,1.5 0 0 1 -0.05524,2.0605533 1.5,1.5 0 0 1 -1.794007,0.247211 5,5 0 0 1 -6.3377209,-0.600764 5,5 0 0 1 -0.059386,-0.06215 1.5,1.5 0 0 1 -1.7083811,-0.291405 1.5,1.5 0 0 1 0,-2.1213208 1.5,1.5 0 0 1 0.3728883,-0.2706893 5,5 0 0 1 1.3948787,-4.3255048 z m 0.7071068,0.7071068 a 4,4 0 0 0 -1.1131408,3.4802912 1.5,1.5 0 0 1 0.7595874,0.4087961 1.5,1.5 0 0 1 0.040051,0.045575 L 7.2114103,8.0980558 A 1.5,1.5 0 0 1 7.6464466,6.9393398 1.5,1.5 0 0 1 9.3520655,6.6479345 L 10.183469,5.8165313 A 1.5,1.5 0 0 1 10.140656,4.6274317 4,4 0 0 0 5.1715729,5.1715729 Z m 0.080102,4.8530731 a 1.5,1.5 0 0 1 -0.140869,0.73749 4,4 0 0 0 0.060767,0.06629 4,4 0 0 0 4.9690831,0.546903 1.5,1.5 0 0 1 0.04281,-1.191861 L 9.3520655,9.3520655 A 1.5,1.5 0 0 1 7.6464466,9.0606602 1.5,1.5 0 0 1 7.6063956,9.0150849 L 5.2516748,10.024646 Z M 10.059172,7.3550413 a 1.5,1.5 0 0 1 0,1.2899174 l 0.831403,0.8314032 a 1.5,1.5 0 0 1 0.870073,-0.1270587 4,4 0 0 0 0,-2.6958444 1.5,1.5 0 0 1 -0.870073,-0.1298207 l -0.831403,0.8314032 z"/>
</svg>
